dist/svgs/unicons/line/sliders-v.svg

<svg xmlns="http://www.w3.org/2000/svg" viewBox="0 0 24 24"><path d="M7 6H6V3a1 1 0 00-2 0v3H3a1 1 0 000 2h4a1 1 0 000-2zm-2 4a1 1 0 00-1 1v10a1 1 0 002 0V11a1 1 0 00-1-1zm7 8a1 1 0 00-1 1v2a1 1 0 002 0v-2a1 1 0 00-1-1zm9-8h-1V3a1 1 0 00-2 0v7h-1a1 1 0 000 2h4a1 1 0 000-2zm-2 4a1 1 0 00-1 1v6a1 1 0 002 0v-6a1 1 0 00-1-1zm-5 0h-1V3a1 1 0 00-2 0v11h-1a1 1 0 000 2h4a1 1 0 000-2z"/></svg>

<svg xmlns="http://www.w3.org/2000/svg" viewBox="0 0 24 24"><path d="M7,6H6V3A1,1,0,0,0,4,3V6H3A1,1,0,0,0,3,8H7A1,1,0,0,0,7,6ZM5,10a1,1,0,0,0-1,1V21a1,1,0,0,0,2,0V11A1,1,0,0,0,5,10Zm7,8a1,1,0,0,0-1,1v2a1,1,0,0,0,2,0V19A1,1,0,0,0,12,18Zm9-8H20V3a1,1,0,0,0-2,0v7H17a1,1,0,0,0,0,2h4a1,1,0,0,0,0-2Zm-2,4a1,1,0,0,0-1,1v6a1,1,0,0,0,2,0V15A1,1,0,0,0,19,14Zm-5,0H13V3a1,1,0,0,0-2,0V14H10a1,1,0,0,0,0,2h4a1,1,0,0,0,0-2Z"/></svg>
